!!!!SEGMENT: pl-kk--kk-i-382--094-001_richling--msza-na-3-glosy-kyrie.krn
!!!cenid: 18xx:1605
!!!COM: Richling
!!!COM-rismID: pe50045950
!!!CDT:
!!!CNT:
!!!OPR: Msza na 3 głosy
!!!OTL: Kyrie
!!!OMV: 001
!!!PDT:
!!!AGN: Sacred; Mass
!!!SMS-siglum: PL-Kk
!!!SMS-shelfmark: Kk.I.382
!!!SMS-shelfwork: 094-001 M
!!!SMS-variant:
!!!SMS-altvar:
!!!NIFC-rismSourceID: 1001139027
!!!NIFC-rismChildID: 1001142972
!!!NIFC-islandoraID: pl-kk:6162
!!!URL-pdf-islandora: https://repozytorium.nifc.pl/islandora/object/pl-kk%3A6162/datastream/PDF/view
!!!URL-scan: https://polish.musicsources.pl/pl/lokalizacje/galeria/rekopisy/5994 @EN{Scan on Polish Music Sources Website} @PL{Skany w portalu Dziedzictwo Muzyki Polskiej w otwartym dostępie}
!!!IIIF:
!!!ONB-nifc: S/T1 od 0062, A/B1 od 0206, B2 od 0279. Części Mszy: 1. Kyrie, 2. Et in terra, 3. Tollite portas, 4. Patrem, 5. Sanctus, 6. Benedictus, 7. Agnus Dei, 8. Dona
!!!AIN: 1 alto 1 bass 1 tenor
!!!key:
**kern	**text	**dynam	**kern	**text	**dynam	**kern	**text	**dynam
*part3	*part3	*part3	*part2	*part2	*part2	*part1	*part1	*part1
*staff3	*staff3	*	*staff2	*staff2	*	*staff1	*staff1	*
*Ibass	*	*	*Ialto	*	*	*Itenor	*	*
*I"Basso II	*	*	*I"Alto. vel Basso I	*	*	*I"Soprano vel Tenore I.	*	*
*I'B2	*	*	*I'A / B1	*	*	*I'S / T1	*	*
*clefF4	*	*	*clefF4	*	*	*clefG2	*	*
*	*	*	*	*	*	*ITrd7c12	*	*
*k[f#c#g#]	*	*	*k[f#c#g#]	*	*	*k[f#c#g#]	*	*
*A:	*	*	*A:	*	*	*A:	*	*
*M4/4	*	*	*M4/4	*	*	*M4/4	*	*
*met(c)	*	*	*met(c)	*	*	*met(c)	*	*
=1	=1	=1	=1	=1	=1	=1	=1	=1
!LO:TX:a:i:t=Maestoso	!	!	!LO:TX:a:i:t=Andante	!	!	!LO:TX:a:i:t=Maestoso	!	!
!LO:TX:a:i:t=Msza na 3 głosy męskie Wincentego Rĭchlinga	!	!	!	!	!	!LO:TX:a:i:t=Msza na 3. głosy Winc&colon; Richlinga.	!	!
!LO:TX:a:i:t=Bas II	!	!LO:DY:a	!LO:TX:a:i:t=Msza na 3 głosy męskie Wincen&colon; Richlinga Kompozycya	!	!	!	!	!
4.AA/	Ky-	mf	4.E\	Ky-	.	4.c#\	Ki-	.
8AA/	-ri-	.	8E\	-ri-	.	8c#\	-ri-	.
4C#/	-e	.	4E\	-e	.	4A\	-e	.
8r	.	.	8r	.	.	8r	.	.
8C#/	e-	.	8E\	e-	.	8A\	e-	.
=2	=2	=2	=2	=2	=2	=2	=2	=2
*2\right	*	*	*2\right	*	*	*2\right	*	*
2E\	-lei-	.	2G#\	-lei-	.	2B\	-lei-	.
4A\	-son	.	4A\	-son	.	4c#\	-son	.
4F#\	e-	.	4A\	e-	.	4c#\	e-	.
=3	=3	=3	=3	=3	=3	=3	=3	=3
(4D#X\	-le-	.	1A\	-lei-	.	1B/	-lei-	.
8F#\L	-i-	.	.	.	.	.	.	.
8E\J	.	.	.	.	.	.	.	.
8D#\L	.	.	.	.	.	.	.	.
8BB\	.	.	.	.	.	.	.	.
8C#\	.	.	.	.	.	.	.	.
8D#\J)	.	.	.	.	.	.	.	.
!	!	!	!	!	!	!LO:LB:g=original	!	!
=4	=4	=4	=4	=4	=4	=4	=4	=4
4E\	-son,	.	4G#\	-son	.	4B\	-son	.
4r	.	.	4r	.	.	8.E/	Ki-	.
.	.	.	.	.	.	16E/	-ri-	.
4r	.	.	2r	.	.	4G#/	-e	.
4Dn\	e-	.	.	.	.	4B\	e-	.
!LO:LB:g=original	!	!	!LO:LB:g=original	!	!	!	!	!
=5	=5	=5	=5	=5	=5	=5	=5	=5
(<4C#/	-lei-	.	4r	.	.	(8A\L	-e-	.
.	.	.	.	.	.	8c#\J	.	.
8C#/L	.	.	4A\	e-	.	2e\)	.	.
8E/J	.	.	.	.	.	.	.	.
2Gn\)	.	.	(8A\L	-le-	.	.	.	.
.	.	.	8c#\J	.	.	.	.	.
.	.	.	4e\)	-i-	.	8c#\L	-lei-	.
.	.	.	.	.	.	8A\J	.	.
=6	=6	=6	=6	=6	=6	=6	=6	=6
4F#\	-son,	.	4A\	-son,	.	4d\	-son	.
4r	.	.	4r	.	.	4r	.	.
4.D\	Ky-	.	4.F#\	Ky-	.	4.d\	Ki-	.
8D\	-ri-	.	8F#\	-ri-	.	8B\	-ri-	.
=7	=7	=7	=7	=7	=7	=7	=7	=7
4C#/	-e,	.	4E\	-e	.	4A/	-e,	.
4r	.	.	4r	.	.	4r	.	.
4.AA/	Ky-	.	4.Gn\	Ky-	.	4.e\	Ki-	.
8AA/	-ri-	.	8G\	-ri-	.	8c#\	-ri-	.
!	!	!	!	!	!	!LO:LB:g=original	!	!
=8	=8	=8	=8	=8	=8	=8	=8	=8
4D\	-e,	.	4F#\	-e	.	4d\	-e	.
4r	.	.	4r	.	.	4A/	e-	.
4r	.	.	4r	.	.	4F#/	.	.
4BB\	e-	.	(4G#\	e-	.	4B/	.	.
=9	=9	=9	=9	=9	=9	=9	=9	=9
1C#/	-lei-	.	4G#\	-le-	.	2A/	-le-	.
.	.	.	2F#\	.	.	.	.	.
.	.	.	.	.	.	2G#/	-i-	.
.	.	.	4E#X\)	-i-	.	.	.	.
!	!	!	!LO:LB:g=original	!	!	!	!	!
=10	=10	=10	=10	=10	=10	=10	=10	=10
4F#\	-son	.	4F#\	-son	.	4F#/	-son	.
4C#\	e-	.	4r	.	.	4r	.	.
(2F#\	-lei-	.	4r	.	.	4r	.	.
!	!	!	!	!	!LO:DY:a	!	!	!
.	.	.	4A\	e-	f	4c#\	e-	.
!LO:LB:g=original	!	!	!	!	!	!	!	!
=11	=11	=11	=11	=11	=11	=11	=11	=11
2E#X\)	.	.	2B\	-lei-	.	2d\	-lei-	.
4F#\	son	.	4A\	-son	.	4c#\	-son	.
4D\	e-	.	4A\	e-	.	4f#\	e-	.
=12	=12	=12	=12	=12	=12	=12	=12	=12
2BB#X/	-lei-	.	2A\	-lei-	.	2f#\	-lei-	.
4C#/	-son.	.	4G#\	-son,	.	4e#X\	-son	.
4r	.	.	4r	.	.	4r	.	.
!	!	!	!	!	!	!LO:LB:g=original	!	!
=13	=13	=13	=13	=13	=13	=13	=13	=13
!	!	!	!	!	!	!	!	!LO:DY:a
4.C#/	Ky-	.	4.E#X\	Ky-	.	4.G#/	Ki-	p
8C#/	-ri-	.	8E#\	-ri-	.	8G#/	-ri-	.
4C#/	-e	.	4F#\	-e	.	4A/	-e	.
4C#/	e-	.	4G#\	e-	.	4B/	e-	.
=14	=14	=14	=14	=14	=14	=14	=14	=14
(4F#\	-lei-	.	2F#\	-lei-	.	2A/	-lei-	.
4E\)	.	.	.	.	.	.	.	.
4D#X\	-son	.	(8F#\L	-son	.	4B\	-son	.
.	.	.	8G#\J	.	.	.	.	.
(8C#\L	e-	.	4A\)	e-	.	4c#\	e-	.
8D#\J)	.	.	.	.	.	.	.	.
!	!	!	!LO:LB:g=original	!	!	!	!	!
=15	=15	=15	=15	=15	=15	=15	=15	=15
2E\	-lei-	.	2G#\	-lei-	.	2B\	-lei-	.
4E\	-son	.	4A\	-son	.	4c#\	-son	.
4E\	e-	.	4B\	e-	.	4d\	e-	.
!LO:LB:g=original	!	!	!	!	!	!	!	!
=16	=16	=16	=16	=16	=16	=16	=16	=16
(4A\	-lei-	.	2A\	-lei-	.	2c#\	-lei-	.
4G#\)	.	.	.	.	.	.	.	.
(4F#\	-son,	.	4A\	-son.	.	4c#\	-son	.
4E\)	.	.	4r	.	.	4r	.	.
=17	=17	=17	=17	=17	=17	=17	=17	=17
!	!	!LO:DY:a	!	!	!	!	!	!
4.D#X\	Ky-	f	4.A\	Ky-	.	4.B#X\	Ky-	f
8D#\	-ri-	.	8A\	-ri-	.	8B#\	-ri-	.
(4E\	-e-	.	4G#\	-e	.	4c#\	-e	.
4BB#X/)	.	.	4F#\	e-	.	4d#X\	e-	.
!	!	!	!	!	!	!LO:LB:g=original	!	!
=18	=18	=18	=18	=18	=18	=18	=18	=18
2C#/	-lei-	.	(4E\	-lei-	.	2e\	-lei-	.
.	.	.	4G#\)	.	.	.	.	.
4AA/	-son	.	4A\	-son	.	4c#\	-son	.
4AA/	e-	.	4A\	e-	.	4f#\	e-	.
=19	=19	=19	=19	=19	=19	=19	=19	=19
1BB/	-lei-	.	(2G#\	-lei-	.	4f#\	-e-	.
.	.	.	.	.	.	2e\	.	.
.	.	.	2F#\)	.	.	.	.	.
.	.	.	.	.	.	4d#X\	-lei-	.
!	!	!	!LO:LB:g=original	!	!	!	!	!
=20	=20	=20	=20	=20	=20	=20	=20	=20
2E\	-son	.	2G#\	-son.	.	2e\	-son.	.
!	!	!	!	!	!	!LO:TX:a:t=V[olti]&colon;S[ubito]&colon;	!	!
2r	.	.	2r	.	.	2r	.	.
!LO:LB:g=original	!	!	!	!	!	!LO:PB:g=original	!	!
=21	=21	=21	=21	=21	=21	=21	=21	=21
!	!	!LO:DY:a	!	!	!LO:DY:a	!	!	!
4.E\	Ky-	p	4.G#\	Ky-	p	4.B\	Ky-	.
8E\	-ri-	.	8G#\	-ri-	.	8B\	-ri-	.
4E\	-e	.	4G#\	-e	.	4e\	-e,	.
8r	.	.	8r	.	.	8r	.	.
8E\	e-	.	8G#\	e-	.	8B\	e-	.
=22	=22	=22	=22	=22	=22	=22	=22	=22
2AA/	-lei-	.	2E\	-lei-	.	2c#\	-lei-	.
4C#/	-son.	.	4E\	-son.	.	4A\	-son	.
4r	.	mf	4r	.	.	4r	.	.
=23	=23	=23	=23	=23	=23	=23	=23	=23
!	!	!	!LO:TX:a:t=1.	!	!	!	!	!
(4F#\	Chri-	.	1r	.	.	2r	.	.
4E\)	.	.	.	.	.	.	.	.
!	!	!	!	!	!	!	!	!LO:DY:a
4D#X\	-ste	.	.	.	.	4f#\	Ky-	mf
4C#\	e-	.	.	.	.	4e\	-ri-	.
=24	=24	=24	=24	=24	=24	=24	=24	=24
2BB/	-lei-	.	4B\	Chri-	.	2d#X\	-e	.
.	.	.	4A\	.	.	.	.	.
4C#/	-son	.	4G#\	-ste	.	4e\	e-	.
4AA/	e-	.	[4A\	[[Chri]]-	.	4c#\	.	.
=25	=25	=25	=25	=25	=25	=25	=25	=25
(>1BB/	-lei-	.	4A\]	.	.	2B\	-lei-	.
.	.	.	2G#\	-ste-	.	.	.	.
.	.	.	.	.	.	2A\	-son	.
!	!	!	!LO:TX:t=P:problem=brak rozpoczęcia ligatury	!	!	!	!	!
.	.	.	[4F#\	.	.	.	.	.
!LO:LB:g=original	!	!	!LO:LB:g=original	!	!	!LO:LB:g=original	!	!
=26	=26	=26	=26	=26	=26	=26	=26	=26
!LO:TX:t=P:problem=brak dokończenia łuku	!	!	!	!	!	!	!	!
4BB#X/)	.	.	4F#\]	-lei-	.	2G#/	Ky-	.
4C#/	.	.	2E\	-son	.	.	.	.
4AA#X/	-son	.	.	.	.	2F#/	-ri-	.
4BBn/	e-	.	4D#X\	.	.	.	.	.
=27	=27	=27	=27	=27	=27	=27	=27	=27
2E\	-lei-	.	8E\L	Ky-	.	(8G#/L	-e	.
.	.	.	8F#\	.	.	8A/	.	.
.	.	.	8G#\	-ri-	.	8B/	.	.
.	.	.	8A\J	.	.	8c#/J)	.	.
4E\	-son	.	4G#\	-e-	.	(8B\L	e-	.
.	.	.	.	.	.	8c#\	.	.
(8F#\L	e-	.	8A\L	.	.	8d#X\	.	.
8G#\J)	.	.	8B\J	.	.	8e\J)	.	.
=28	=28	=28	=28	=28	=28	=28	=28	=28
!	!	!	!	!	!	!	!	!LO:DY:a
(8A\L	-lei-	.	8c#\L	-lei-	.	2c#\	-lei-	f
8G#\	.	.	8B\	.	.	.	.	.
8F#\	.	.	8A\	.	.	.	.	.
8E#X\J)	.	.	8G#\J	.	.	.	.	.
(8F#\L	.	.	4A\	-son	.	4c#\	-son	.
8En\	.	.	.	.	.	.	.	.
8D#X\	-son	.	4A\	e-	.	8B\L	e-	.
8C#\J)	.	.	.	.	.	8c#\J	.	.
=29	=29	=29	=29	=29	=29	=29	=29	=29
2BB/	e-	.	8B\L	-lei-	.	2d#X\	-lei-	.
.	.	.	8A\	.	.	.	.	.
.	.	.	8G#\	.	.	.	.	.
.	.	.	8F#\J	.	.	.	.	.
4E\	-le-	.	8G#\L	.	.	4e\	-son	.
.	.	.	8F#\	.	.	.	.	.
4C#\	-i-	.	8E\	.	.	4G#/	e-	.
.	.	.	8D#X\J	.	.	.	.	.
=30	=30	=30	=30	=30	=30	=30	=30	=30
2AA/	-son.	.	4C#/	-son	.	4B\	-le-	.
.	.	.	4F#\	e-	.	4A\	-i-	.
4r	.	.	2A\	-lei-	.	2c#\	-son	.
4F#\	Chri-	.	.	.	.	.	.	.
!LO:LB:g=original	!	!	!LO:LB:g=original	!	!	!LO:LB:g=original	!	!
=31	=31	=31	=31	=31	=31	=31	=31	=31
4E#X\	-ste	.	4G#\	-son	.	4.c#\	Ky-	.
4En\	e-	.	4A#X\	Chri-	.	.	.	.
.	.	.	.	.	.	8c#\	-ri-	.
4D#X\	-lei-	.	4B\	-ste	.	4f#\	-e-	.
4Dn\	-son	.	4G#\	e-	.	(4f\	-e	.
=32	=32	=32	=32	=32	=32	=32	=32	=32
!LO:TX:a:i:t=ritardando	!	!	!LO:TX:t=P:problem="ritard" ołówkiem	!	!	!	!	!
(4C#/	e-	.	(4A\	.	.	4e\)	.	.
4Cn/)	.	.	4E\	.	.	8r	.	.
!	!	!	!	!	!	!LO:TX:a:i:t=ritardando	!	!
.	.	.	.	.	.	8e\	e-	.
4BB/	-lei-	.	4F#\)	lei-	.	4d#X\	-lei-	.
!LO:TX:t=P:problem=fermata ołówkiem	!	!	!LO:TX:t=P:problem=fermata ołówkiem	!	!	!LO:TX:t=P:problem=fermata ołówkiem	!	!
4E\	-son.	.	4G#\	-son.	.	4d\	-son.	.
=33	=33	=33	=33	=33	=33	=33	=33	=33
!	!	!	!	!	!	!LO:TX:a:i:t=a tempo	!	!
4.AA/	Ky-	.	4.E\	Ky-	.	4.c#\	Ky-	.
8AA/	-ri-	.	8E\	-ri-	.	8c#\	-ri-	.
4C#X/	-e,	.	4E\	-e	.	4A\	-e	.
8r	.	.	8r	.	.	8r	.	.
8C#/	e-	.	8E\	e-	.	8A/	e-	.
=34	=34	=34	=34	=34	=34	=34	=34	=34
2E\	-lei-	.	2G#\	-lei-	.	2B\	-lei-	.
4A\	-son	.	4A\	-son	.	4c#\	-son	.
4F#\	e-	.	4A\	e-	.	4c#\	e-	.
!LO:LB:g=original	!	!	!	!	!	!LO:LB:g=original	!	!
=35	=35	=35	=35	=35	=35	=35	=35	=35
(8D#X\L	-lei-	.	1A\	-lei-	.	(8B\L	-lei-	.
8BB\	.	.	.	.	.	8d#X\	.	.
8D#\	.	.	.	.	.	8f#\	.	.
8F#\J)	.	.	.	.	.	8e\J	.	.
4B\	.	.	.	.	.	8d#\L	.	.
.	.	.	.	.	.	8B\	.	.
[>4BB/	.	.	.	.	.	8c#\	.	.
.	.	.	.	.	.	8d#\J)	.	.
!	!	!	!LO:LB:g=original	!	!	!	!	!
=36	=36	=36	=36	=36	=36	=36	=36	=36
8BB\L]	.	.	4G#\	-son,	.	4e\	-son,	.
(8E\	.	.	.	.	.	.	.	.
8G#\	.	.	4r	.	.	4r	.	.
8F#\J	.	.	.	.	.	.	.	.
8E\L	.	.	2r	.	.	4r	.	.
8Dn\	.	.	.	.	.	.	.	.
8C#\	-son,	.	.	.	.	4E/	e-	.
8BB#X\J)	.	.	.	.	.	.	.	.
=37	=37	=37	=37	=37	=37	=37	=37	=37
4C#/	Ky-	.	4r	.	.	(8A\L	-lei-	.
.	.	.	.	.	.	8c#\J	.	.
(8C#\L	-ri-	.	4A\	Ky-	.	2e\)	.	.
8E\J	.	.	.	.	.	.	.	.
2Gn\)	-e-	.	8A\L	-ri-	.	.	.	.
.	.	.	8c#\J	-e-	.	.	.	.
.	.	.	4e\	-lei-	.	8c#\L	.	.
.	.	.	.	.	.	8A\J	.	.
=38	=38	=38	=38	=38	=38	=38	=38	=38
4F#\	-e,	.	4A\	-son	.	4d\	-son	.
8r	.	.	8r	.	.	8r	.	.
8D\	e-	.	8B\	e-	.	8d\	e-	.
(4D#X\	-lei-	.	4A\	-lei-	.	4c#\	-le-	.
4E\)	.	.	(4G#\	-son	.	4B\	-i-	.
!LO:LB:g=original	!	!	!	!	!	!	!	!
=39	=39	=39	=39	=39	=39	=39	=39	=39
4AA/	-son	.	4A\)	.	.	4c#\	-son	.
4Dn/	e-	.	4F#\	e-	.	4A\	e-	.
2D/	-lei-	.	(4F#\	-lei-	.	4A\	-le-	.
.	.	.	4Fn\)	.	.	4B\	-i-	.
!	!	!	!	!	!	!LO:LB:g=original	!	!
=40	=40	=40	=40	=40	=40	=40	=40	=40
!LO:TX:a:t=V[olti]&colon;S[ubito] Gloria	!	!	!	!	!	!	!	!
!LO:TX:t=P:problem=1E ołówkiem	!	!	!	!	!	!	!	!
1E/ 1AA/	-son.	.	1E\	-son.	.	1c#/	-son.	.
==	==	==	==	==	==	==	==	==
*-	*-	*-	*-	*-	*-	*-	*-	*-
!!!system-decoration: [(s1,s2,s3)]
!!!EED: Leszek Kubiak
!!!EEV: 2021-03-26
!!!ENC: Krzysztof Stępień
!!!END: 2021-03-05
!!!YEC: Copyright 2022 Narodowy Instytut Fryderyka Chopina (https://polishscores.org)
!!!YEM: License CC-BY-4.0 (https://creativecommons.org/licenses/by/4.0)
